svgs/thin/user-nurse-hair.svg

<svg xmlns="http://www.w3.org/2000/svg" viewBox="0 0 448 512"><!--! Font Awesome Pro 6.1.1 by @fontawesome - https://fontawesome.com License - https://fontawesome.com/license (Commercial License) Copyright 2022 Fonticons, Inc. --><path d="M224 40C228.4 40 232 43.58 232 48V72H256C260.4 72 264 75.58 264 80C264 84.42 260.4 88 256 88H232V112C232 116.4 228.4 120 224 120C219.6 120 216 116.4 216 112V88H192C187.6 88 184 84.42 184 80C184 75.58 187.6 72 192 72H216V48C216 43.58 219.6 40 224 40zM96 76.93C96 64.22 103.5 52.71 115.2 47.61L211.2 5.613C219.4 2.035 228.6 2.035 236.8 5.613L332.8 47.61C344.5 52.71 352 64.22 352 76.93V176C352 246.7 294.7 304 224 304C153.3 304 96 246.7 96 176V76.93zM112 76.93V144H336V76.93C336 70.57 332.2 64.82 326.4 62.27L230.4 20.27C226.3 18.48 221.7 18.48 217.6 20.27L121.6 62.27C115.8 64.82 112 70.57 112 76.93zM162.3 208H116.6C130.4 254.3 173.3 288 224 288C285.9 288 336 237.9 336 176V160H244.8C228 189.6 196.6 208 162.3 208V208zM112 176C112 181.4 112.4 186.8 113.1 192H162.3C187.6 192 211.1 179.9 225.8 160H112V176zM417.3 509.9H30.72C13.75 509.9 0 496.2 0 479.2C0 400.5 56.33 335 130.9 320.8L224 413.9L317.1 320.8C391.7 335 448 400.5 448 479.2C448 496.2 434.2 509.9 417.3 509.9zM125.7 338.3C62.69 354.2 16 411.2 16 479.2C16 487.3 22.59 493.9 30.72 493.9H417.3C425.4 493.9 432 487.3 432 479.2C432 411.2 385.3 354.2 322.3 338.3L235.3 425.2C232.3 428.2 228.2 429.9 224 429.9C219.8 429.9 215.7 428.2 212.7 425.2L125.7 338.3z"/></svg>

<svg xmlns="http://www.w3.org/2000/svg" viewBox="0 0 448 512"><!--! Font Awesome Pro 6.4.2 by @fontawesome - https://fontawesome.com License - https://fontawesome.com/license (Commercial License) Copyright 2023 Fonticons, Inc. --><path d="M112 76.9V144H336V76.9c0-6.4-3.8-12.1-9.6-14.7l-96-42c-4.1-1.8-8.7-1.8-12.8 0l-96 42c-5.8 2.5-9.6 8.3-9.6 14.7zM96 144V76.9c0-12.7 7.5-24.2 19.2-29.3l96-42c8.2-3.6 17.5-3.6 25.7 0l96 42C344.5 52.7 352 64.2 352 76.9V144v16 0 16c0 70.7-57.3 128-128 128s-128-57.3-128-128V160v0V144zm148.8 16c-16.8 29.6-48.2 48-82.5 48H116.6c13.8 46.3 56.6 80 107.4 80c61.9 0 112-50.1 112-112V160v0H244.8zM112 160v0 16c0 5.4 .4 10.8 1.1 16h49.2c25.3 0 48.7-12.1 63.4-32H112zm19.5 184.1c-4-4-8.9-5-12.5-3.9C59.4 358.2 16 413.7 16 479.2c0 8.1 6.6 14.7 14.7 14.7H417.3c8.1 0 14.7-6.6 14.7-14.7c0-65.5-43.4-121-103.1-139.1c-3.6-1.1-8.5-.1-12.5 3.9l-69.8 69.8c-12.5 12.5-32.8 12.5-45.3 0l-69.8-69.8zm-17.1-19.2c10.1-3.1 20.9 .4 28.4 7.9l69.8 69.8c6.2 6.2 16.4 6.2 22.6 0l69.8-69.8c7.5-7.5 18.3-11 28.4-7.9C399.8 344.9 448 406.4 448 479.2c0 17-13.8 30.7-30.7 30.7H30.7c-17 0-30.7-13.8-30.7-30.7c0-72.8 48.2-134.3 114.4-154.4zM224 40c4.4 0 8 3.6 8 8V72h24c4.4 0 8 3.6 8 8s-3.6 8-8 8H232v24c0 4.4-3.6 8-8 8s-8-3.6-8-8V88H192c-4.4 0-8-3.6-8-8s3.6-8 8-8h24V48c0-4.4 3.6-8 8-8z"/></svg>
